X: 1
T:Kilfenora Jig, The
R:jig
D:Arcady: Many Happy Returns
D:Johnstons
M:6/8
L:1/8
K:D
|:F2A ABA|ABA FED|G2B B=cB|B=cB BAG|!
F2A ABA|ABA FED|dcB AGF|1 GFE D2E:|2 GFE DFA||!
|:d2A F2A|dfe d2c|dcB AGF|EFG ABc|!
d2A F2A|dfe d2c|dcB AGF|1 GFE DFA:|2 GFE D2E||!
